storage/app/icons/phosphoricons/regular/scissors.svg

<svg xmlns="http://www.w3.org/2000/svg" fill="currentColor" viewBox="0 0 256 256"><path d="M157.73 113.13a8 8 0 0 1 2.09-11.13l67.66-46.3a8 8 0 0 1 9 13.21l-67.67 46.3a7.9 7.9 0 0 1-4.51 1.4 8 8 0 0 1-6.57-3.48m80.87 85.09a8 8 0 0 1-11.12 2.08L136 137.7l-42.51 29.08a36 36 0 1 1-9-13.19L121.83 128l-37.39-25.59a35.86 35.86 0 1 1 9-13.19l143 97.87a8 8 0 0 1 2.16 11.13M80 180a20 20 0 1 0-5.86 14.14A19.85 19.85 0 0 0 80 180m-5.86-89.87a20 20 0 1 0-28.28 0 19.85 19.85 0 0 0 28.28 0"/></svg>

<svg xmlns="http://www.w3.org/2000/svg" viewBox="0 0 256 256" fill="currentColor"><path d="M157.73,113.13A8,8,0,0,1,159.82,102L227.48,55.7a8,8,0,0,1,9,13.21l-67.67,46.3a7.92,7.92,0,0,1-4.51,1.4A8,8,0,0,1,157.73,113.13Zm80.87,85.09a8,8,0,0,1-11.12,2.08L136,137.7,93.49,166.78a36,36,0,1,1-9-13.19L121.83,128,84.44,102.41a35.86,35.86,0,1,1,9-13.19l143,97.87A8,8,0,0,1,238.6,198.22ZM80,180a20,20,0,1,0-5.86,14.14A19.85,19.85,0,0,0,80,180ZM74.14,90.13a20,20,0,1,0-28.28,0A19.85,19.85,0,0,0,74.14,90.13Z"/></svg>
